X:1
T: the Jig of Clonmore
R:jig
S:Juergen Gier <Juergen.Gier@post.rwth-aachen.de> irtrad-l 2000-02-02
M:6/8
K:G
GED ~D3|GEG c2e|dBG GAB|AGE ~E3|\
GED ~D3|GEG c2e|dBG GAB|AGF G3:|\
gdB GBd|gdB c2e|dBG GAB|AGE ~E3|\
gdB GBd|gdB c2e|dBG GAB|AGF G2d|\
gdd edd|gdB c2e|dBG GAB|AGE ~E3|\
GED ~D3|GEG c2e|dBG GAB|AGF G3|]
